X: 1
T:Captain John's Hornpipe
B:Joyce, P. W.; "Old Irish Folk Music and Songs"
R:hornpipe
H:Learned in childhood from fiddlers.
L:1/8
M:C
K:D
fg|afge dfed|ceAA ABAG|FA df gfed|ceAA A fg|
afge dfed|ceAA ABAG|FAdf gedc|d2 dd d2:|
|:cd|eAAA fdfd|eAAA fdfd|gfed dcBA|GBBB B2 AG|
FAAA dcBA|cdef gedc|dfaf bgec|d2 dd d2:|
